X: 187
T:The Gallowglass
M:6/8
L:1/8
C:Jig
K:D %i.e. Em
|: GFE BFA | GEE E2F | GFG Bcd | AFD DEF | GFE BFA | GBe B2A | GFE DE
F | GEE E3:|\
efe B2A | GEE E2F | GFG Bcd | AFD D3| efe B2A | GFE B2A | GFE DEF | GEE
E3 |\
efe B2A | GEE E2F | GFG Bcd | AFD D3| eBe dAd | BGB AFD | GFE DEF | GEE
E3 ||
